account-injury.svg

<svg fill="currentColor" viewBox="0 0 24 24"><path d="M8 6c0-2.21 1.79-4 4-4s4 1.79 4 4-1.79 4-4 4-4-1.79-4-4m9 16h1c1.1 0 2-.9 2-2v-4.78c0-1.12-.61-2.15-1.61-2.66-.43-.22-.89-.43-1.39-.62zm-4.66-5L15 11.33c-.93-.21-1.93-.33-3-.33-2.53 0-4.71.7-6.39 1.56A2.97 2.97 0 0 0 4 15.22V22h2.34c-.22-.45-.34-.96-.34-1.5C6 18.57 7.57 17 9.5 17zM10 22l1.41-3H9.5c-.83 0-1.5.67-1.5 1.5S8.67 22 9.5 22z"/></svg>

<svg  viewBox="0 0 24 24" fill="currentColor"><path  d="M8 6C8 3.79 9.79 2 12 2S16 3.79 16 6 14.21 10 12 10 8 8.21 8 6M17 22H18C19.1 22 20 21.1 20 20V15.22C20 14.1 19.39 13.07 18.39 12.56C17.96 12.34 17.5 12.13 17 11.94V22M12.34 17L15 11.33C14.07 11.12 13.07 11 12 11C9.47 11 7.29 11.7 5.61 12.56C4.61 13.07 4 14.1 4 15.22V22H6.34C6.12 21.55 6 21.04 6 20.5C6 18.57 7.57 17 9.5 17H12.34M10 22L11.41 19H9.5C8.67 19 8 19.67 8 20.5S8.67 22 9.5 22H10Z"/></svg>
